X:1
T:Title
%%score { ( 1 3 4 ) | ( 2 5 ) }
L:1/8
M:2/4
K:Eb
V:1 treble nm="Grand Piano"
V:3 treble 
V:4 treble 
V:2 bass 
V:5 bass 
V:1
 z2 z[Q:1/4=100] G | GD EG | z .B3 | ED DC | z2 z F | A=E FB | z .c3 | G_G =Gc | B4 | GD EG | %10
 .c2 z G | .F2 z2 | [CFA]3 [E_Gc] | [EGB]2 [B,EG]2 | [B,EG]2 [A,DF]2 | [G,B,E]4- | [G,B,E]2 z2 | %17
 [CEG][EGB] [EGB]2 | [B,EG][EGB] [EGB]2 | G2 z2 | A4 | z2 .[B,G]2 | [B,EB]2 [B,EG]2 | %23
 [DF][DB] [C=A]c | [DFB]4 | GG _G=G | cB AG | .F2 FG | [CFA]3 [E_Gc] | [EGB]2 [B,EG]2 | %30
 [B,EG]2 [A,DF]2 | [G,B,E]4- |[M:3/8] [G,B,E]2 z |] %33
V:2
 z4 | E,,2 [B,,E,G,]2 | G,,2 [B,,E,]2 | F,,2 [B,,D,A,]2 | B,,,2 [B,,D,]2 | B,,,2 [B,,A,]2 | %6
 B,,,2 [B,,D,]2 | E,,2 [B,,E,G,]2 | E,,2 [B,,E,]2 | E,,2 [B,,E,G,]2 | G,,2 [B,,E,]2 | z =E A,,G,, | %12
 F,,3 =A,, | B,,B,,, E,,G,, | B,,C, D,B,, | E,,C, B,,G,, | E,,2 z2 | E,,B,, E,B,,, | %18
 E,,B,, E,B,,, | [E,,E,]2 z E | z C D,,2 | z A B,,A,, | [G,,G,]2 [E,,E,]2 | [F,,F,]2 z E | %24
 B,,A,, G,,F,, | E,,2 [B,,E,G,]2 | G,,2 [B,,E,G,]2 | z =E A,,G,, | F,,3 =A,, | B,,B,,, D,,F,, | %30
 B,,C, D,B,, | E,,C, B,,G,, |[M:3/8] E,,2 z |] %33
V:3
 x4 | x4 | .c2 z E | x4 | D4 | x4 | .d2 z A | x4 | z2 z G | x4 | z .B3 | C2- [C-F][C=EG] | x4 | %13
 x4 | x4 | x4 | x4 | x4 | x4 | B,C .[DG]2 | .D2 [D,B,]2 | .[B,DA]2 D-[A,DF] | x4 | x4 | x4 | x4 | %26
 x4 | C4 | x4 | x4 | x4 | x4 |[M:3/8] x3 |] %33
V:4
 x4 | x4 | z2 G,2 | x4 | z2 A,2 | x4 | z2 A,2 | x4 | z2 G,2 | x4 | z2 G,2 | x4 | x4 | x4 | x4 | %15
 x4 | x4 | x4 | x4 | x4 | x4 | x4 | x4 | x4 | x4 | x4 | x4 | x4 | x4 | x4 | x4 | x4 |[M:3/8] x3 |] %33
V:5
 x4 | x4 | x4 | x4 | x4 | x4 | x4 | x4 | x4 | x4 | x4 | A,,2 z2 | x4 | x4 | x4 | x4 | x4 | x4 | %18
 x4 | z2 [B,,,B,,]2 | F,,2 z2 | B,,2 z2 | x4 | z2 [F,,F,]2 | x4 | x4 | x4 | A,,2 z2 | x4 | x4 | %30
 x4 | x4 |[M:3/8] x3 |] %33

